dist/images/icons/search.svg

<svg width="28" height="24" viewBox="0 0 28 24" fill="none" xmlns="http://www.w3.org/2000/svg">
<g clip-path="url(#clip0_60_2719)">
<path fill-rule="evenodd" clip-rule="evenodd" d="M17.9424 15.6633C18.1014 15.5238 18.2903 15.4132 18.4981 15.3377C18.706 15.2622 18.9288 15.2234 19.1538 15.2234C19.3789 15.2234 19.6017 15.2622 19.8096 15.3377C20.0174 15.4132 20.2063 15.5238 20.3653 15.6633L26.9577 21.4383C27.279 21.7196 27.4596 22.1011 27.4598 22.499C27.4599 22.8969 27.2797 23.2786 26.9586 23.5601C26.6375 23.8415 26.2019 23.9997 25.7477 23.9999C25.2935 24 24.8578 23.8421 24.5365 23.5608L17.9441 17.7858C17.7849 17.6465 17.6586 17.4811 17.5724 17.299C17.4862 17.1169 17.4419 16.9217 17.4419 16.7246C17.4419 16.5274 17.4862 16.3322 17.5724 16.1501C17.6586 15.968 17.7849 15.8026 17.9441 15.6633H17.9424Z" fill="#E6E8EC"/>
<path fill-rule="evenodd" clip-rule="evenodd" d="M11.1945 18C12.4313 18 13.6559 17.7866 14.7985 17.372C15.9411 16.9574 16.9793 16.3497 17.8539 15.5836C18.7284 14.8175 19.4221 13.9081 19.8954 12.9071C20.3687 11.9062 20.6122 10.8334 20.6122 9.75C20.6122 8.66659 20.3687 7.5938 19.8954 6.59286C19.4221 5.59193 18.7284 4.68245 17.8539 3.91637C16.9793 3.15029 15.9411 2.5426 14.7985 2.12799C13.6559 1.71339 12.4313 1.5 11.1945 1.5C8.69677 1.5 6.30133 2.36919 4.53516 3.91637C2.76899 5.46354 1.77677 7.56196 1.77677 9.75C1.77677 11.938 2.76899 14.0365 4.53516 15.5836C6.30133 17.1308 8.69677 18 11.1945 18ZM22.3246 9.75C22.3246 12.3359 21.1519 14.8158 19.0646 16.6443C16.9774 18.4728 14.1464 19.5 11.1945 19.5C8.24263 19.5 5.41166 18.4728 3.32437 16.6443C1.23708 14.8158 0.0644531 12.3359 0.0644531 9.75C0.0644531 7.16414 1.23708 4.68419 3.32437 2.85571C5.41166 1.02723 8.24263 0 11.1945 0C14.1464 0 16.9774 1.02723 19.0646 2.85571C21.1519 4.68419 22.3246 7.16414 22.3246 9.75Z" fill="#E6E8EC"/>
</g>
<defs>
<clipPath id="clip0_60_2719">
<rect width="27.3971" height="24" fill="white" transform="translate(0.0644531)"/>
</clipPath>
</defs>
</svg>

<svg width="28" height="24" fill="none" xmlns="http://www.w3.org/2000/svg"><g clip-path="url(#clip0_60_2719)" fill-rule="evenodd" clip-rule="evenodd" fill="#E6E8EC"><path d="M17.942 15.663c.16-.14.348-.25.556-.325a1.924 1.924 0 011.312 0c.207.075.396.186.555.325l6.593 5.775c.321.282.502.663.502 1.061 0 .398-.18.78-.501 1.061-.322.282-.757.44-1.211.44-.454 0-.89-.158-1.212-.44l-6.592-5.774a1.504 1.504 0 01-.372-.487 1.34 1.34 0 010-1.149c.087-.182.213-.347.372-.487h-.002z"/><path d="M11.194 18c1.237 0 2.462-.213 3.604-.628a9.604 9.604 0 003.056-1.788 8.27 8.27 0 002.041-2.677c.474-1 .717-2.074.717-3.157a7.371 7.371 0 00-.717-3.157 8.271 8.271 0 00-2.041-2.677 9.604 9.604 0 00-3.055-1.788 10.586 10.586 0 00-3.604-.628c-2.498 0-4.894.87-6.66 2.416C2.77 5.464 1.777 7.562 1.777 9.75c0 2.188.992 4.287 2.758 5.834C6.301 17.13 8.697 18 11.195 18zm11.13-8.25c0 2.586-1.172 5.066-3.26 6.894-2.087 1.829-4.918 2.856-7.87 2.856-2.951 0-5.782-1.027-7.87-2.856C1.237 14.816.064 12.336.064 9.75c0-2.586 1.173-5.066 3.26-6.894C5.412 1.027 8.243 0 11.194 0c2.952 0 5.783 1.027 7.87 2.856 2.088 1.828 3.26 4.308 3.26 6.894z"/></g><defs><clipPath id="clip0_60_2719"><path fill="#fff" transform="translate(.064)" d="M0 0h27.397v24H0z"/></clipPath></defs></svg>
